X: 167
T: Staines Morris
M:4/4
L:1/8
Q:160
S:Playford
O:Manuscript
A:English
K:Gm
d2 g2 =e2 ^f2|g2 f=e d3 e|fgf_e d2 cB|AGAB G4:|
|:Bcd=e d2 cB|AGAB G4|Bcd=e d2 cB|AGAB G4:|
|: B2 B2 F2 F2|GABc d3 =e|fgf=e d2 cB|AGAB G4|B2 B2 F2 F2|GABc d3 =e|fgf=e d2 cB|AGAB G4:|

